X: 1
T:Dusty Miller, The
R:slip jig
D:Tommy Keane: The Piper's Apron
Z:id:hn-slipjig-19
M:9/8
K:D
~A3 A2G A2G|~A3 A2G B2d|~A3 A2G A2G|B2G G2A B2d:|
|:A2D ~D3 A2d|A2D ~D3 B2d|A2D ~D3 G2A|B2B B2A B2d:|
